Sources/FrostedUI/Resources/Icons.xcassets/gamepadFilled24.imageset/gamepad-filled-24.svg

<svg width="24" height="24" viewBox="0 0 24 24" fill="none" xmlns="http://www.w3.org/2000/svg" data-fui-icon="true">
  <path
    d="M16.5361 3.25C20.02 3.25 22.9316 5.9015 23.2568 9.37012L23.9395 16.6504C24.1454 18.8497 22.415 20.7497 20.2061 20.75H20C19.2901 20.75 18.597 20.5483 18 20.1719L17.75 20L15.3496 18.2002C14.9602 17.9082 14.4867 17.75 14 17.75H10C9.51329 17.75 9.03978 17.9082 8.65039 18.2002L6.25 20C5.60091 20.4868 4.81134 20.75 4 20.75H3.79395C1.58507 20.7496 -0.145374 18.8497 0.0605469 16.6504L0.743164 9.37012C1.06834 5.90155 3.98011 3.25009 7.46387 3.25H16.5361ZM15 11.6006C14.3374 11.6007 13.7998 12.1381 13.7998 12.8008C13.8002 13.4631 14.3376 14.0009 15 14.001C15.6625 14.001 16.1998 13.4632 16.2002 12.8008C16.2002 12.138 15.6627 11.6006 15 11.6006ZM8 8C7.58581 8.00003 7.25 8.3358 7.25 8.75V10.25H5.75C5.33581 10.25 5 10.5858 5 11C5 11.4142 5.33581 11.75 5.75 11.75H7.25V13.25C7.25 13.6642 7.58581 14 8 14C8.41421 14 8.75 13.6642 8.75 13.25V11.75H10.25C10.6642 11.75 11 11.4142 11 11C11 10.5858 10.6642 10.25 10.25 10.25H8.75V8.75C8.75 8.33579 8.41421 8 8 8ZM17.3994 8.00098C16.737 8.00123 16.2004 8.5378 16.2002 9.2002C16.2005 9.86256 16.737 10.4001 17.3994 10.4004C18.062 10.4004 18.5993 9.86271 18.5996 9.2002C18.5994 8.53764 18.062 8.00098 17.3994 8.00098Z"
    fill="currentColor"
  />
</svg>

<svg xmlns="http://www.w3.org/2000/svg" width="24" height="24" fill="none" data-fui-icon="true" viewBox="0 0 24 24"><path fill="currentColor" d="M16.536 3.25a6.75 6.75 0 0 1 6.72 6.12l.683 7.28a3.75 3.75 0 0 1-3.733 4.1H20a3.75 3.75 0 0 1-2-.578L17.75 20l-2.4-1.8a2.25 2.25 0 0 0-1.35-.45h-4c-.487 0-.96.158-1.35.45L6.25 20a3.75 3.75 0 0 1-2.25.75h-.206a3.75 3.75 0 0 1-3.733-4.1l.682-7.28a6.75 6.75 0 0 1 6.72-6.12zM15 11.6a1.2 1.2 0 1 0 0 2.402 1.2 1.2 0 0 0 0-2.401M8 8a.75.75 0 0 0-.75.75v1.5h-1.5a.75.75 0 0 0 0 1.5h1.5v1.5a.75.75 0 0 0 1.5 0v-1.5h1.5a.75.75 0 0 0 0-1.5h-1.5v-1.5A.75.75 0 0 0 8 8m9.4.001a1.2 1.2 0 1 0 0 2.399A1.2 1.2 0 0 0 17.4 8"/></svg>
